!!!!SEGMENT: pl-cz--iii-453--001-003_maader-ludwik--rorate-caeli-zdrowas-badz-maria.krn
!!!cenid: 17xx:982
!!!COM: Maader, Ludwik
!!!COM-rismid: pe30020328
!!!CDT: <1794->1798
!!!CNT:
!!!OPR: Rorate caeli
!!!OTL: Zdrowaś bądź Maria
!!!OMV: 003
!!!PDT: 1784
!!!AGN: Sacred
!!!SMS-siglum: PL-CZ
!!!SMS-shelfmark: III-453
!!!SMS-shelfwork: 001-003 M
!!!SMS-variant:
!!!SMS-altvar:
!!!NIFC-rismid: 300000768
!!!URL-scan: http://repozytorium.nifc.pl/skany/pl-cz-nut--iii-453
!!!ONB-nifc: UWAGA: części Rorate caeli: Rorate, Mittit ad virginem, Zdrowaś bądź Maria, Super bientium, Łaskiś pełna pańskiej, Qui nobis tribuat, Amen
!!!key: G
**kern	**fba	**dynam	**kern	**kern	**kern	**text	**kern	**text	**kern	**text	**kern	**text	**kern	**kern	**kern	**kern	**kern
*part12	*part12	*part12	*part11	*part10	*part9	*part9	*part8	*part8	*part7	*part7	*part6	*part6	*part5	*part4	*part3	*part2	*part1
*staff12	*	*	*staff11	*staff10	*staff9	*staff9	*staff8	*staff8	*staff7	*staff7	*staff6	*staff6	*staff5	*staff4	*staff3	*staff2	*staff1
*Iorgan	*	*	*Ivioln	*Ivioln	*Ibass	*	*Itenor	*	*Ialto	*	*Ivox	*	*Itimpa	*Iempty	*Iempty	*Ioboe	*Ioboe
*I"Organo	*	*	*I"Violino Secondo	*I"Violino Primo	*I"Basso	*	*I"Tenore	*	*I"Alto	*	*I"Canto	*	*I"Tympano in D. A.	*I"Clarino Secondo in D	*I"Clarino Primo in D	*I"Oboe Secondo	*I"Oboe Primo
*I'org	*	*	*I'vl 2	*I'vl 1	*I'B	*	*I'T	*	*I'A	*	*I'S	*	*I'timp	*I'clno 2 in D	*I'clno 1 in D	*I'ob 2	*I'ob 1
*ICklav	*	*	*ICstr	*ICstr	*ICvox	*	*ICvox	*	*ICvox	*	*ICvox	*	*ICidio	*ICww	*ICww	*ICww	*ICww
*	*	*	*	*	*IGcoro	*	*IGcoro	*	*IGcoro	*	*IGcoro	*	*	*	*	*	*
*clefF4	*	*	*clefG2	*clefG2	*clefF4	*	*clefC4	*	*clefC3	*	*clefC1	*	*clefF4	*clefG2	*clefG2	*clefG2	*clefG2
*	*	*	*	*	*	*	*	*	*	*	*	*	*	*ITrd-1c-2	*ITrd-1c-2	*	*
*k[f#]	*	*	*k[f#]	*k[f#]	*k[f#]	*	*k[f#]	*	*k[f#]	*	*k[f#]	*	*k[f#]	*k[f#]	*k[f#]	*k[f#]	*k[f#]
*G:	*	*	*G:	*G:	*G:	*	*G:	*	*G:	*	*G:	*	*G:	*G:	*G:	*G:	*G:
*M2/4	*	*	*M2/4	*M2/4	*M2/4	*	*M2/4	*	*M2/4	*	*M2/4	*	*M2/4	*M2/4	*M2/4	*M2/4	*M2/4
!	!	!	!LO:TX:a:t=Tacet	!LO:TX:a:t=Tacet	!LO:TX:t=P:problem:brak przedtaktu	!	!LO:TX:t=P:problem:brak przedtaktu	!	!LO:TX:t=P:problem:brak przedtaktu	!	!LO:TX:t=P:problem:brak przedtaktu	!	!	!	!	!LO:TX:t=P:problem:brak przedtaktu	!
8r	.	.	8ryy	8ryy	8ryy	.	8ryy	.	8ryy	.	8ryy	.	8ryy	8ryy	8ryy	8ryy	8r
=1	=1	=1	=1	=1	=1	=1	=1	=1	=1	=1	=1	=1	=1	=1	=1	=1	=1
*	*	*	*	*	*	*	*^	*	*	*	*	*	*	*	*	*	*
!LO:TX:a:t=Solo	!	!LO:DY:b:t=piano.	!	!	!	!	!	!	!	!	!	!	!	!	!	!	!	!
4G\	.	p	2ryy	2ryy	8G\	Zdro-	8D/	8d/	Zdro-	8B/	Zdro-	8g/	Zdro-	2ryy	2ryy	2ryy	2r	2r
.	.	.	.	.	8G\	-was	8D/	8d/	-was	8B/	-was	8g/	-was	.	.	.	.	.
4r	.	.	.	.	8D\	bąd	8D/	8d/	bąd	8f#\	bąd	8a\	bąd	.	.	.	.	.
.	.	.	.	.	8G\	Ma-	8D/	8d/	Ma-	8g\	Ma-	8b\	Ma-	.	.	.	.	.
=2	=2	=2	=2	=2	=2	=2	=2	=2	=2	=2	=2	=2	=2	=2	=2	=2	=2	=2
!	!	!	!	!	!	!	!LO:TX:a:t=in 8ctava	!	!	!	!	!	!	!	!	!	!	!
4D\	.	.	2ryy	2ryy	4F#\	-ri-	4D/	4dyy	-ri-	4a\	-ri-	4cc\	-ri-	2ryy	2ryy	2ryy	2r	2r
4r	.	.	.	.	4D\	-a	4D/	4dyy	-a	4f#\	-a	4a\	-a	.	.	.	.	.
=3	=3	=3	=3	=3	=3	=3	=3	=3	=3	=3	=3	=3	=3	=3	=3	=3	=3	=3
8G\	.	.	2ryy	2ryy	8G\	Nie-	8D/	8dyy	Nie-	8g\	Nie-	8b\	nie-	2ryy	2ryy	2ryy	2r	2r
8r	.	.	.	.	8G\	-bies-	8G/	8gyy	-bie-	8b\	-bie-	8dd\	-bie-	.	.	.	.	.
8c\L	.	.	.	.	8c\L	-ka	4E/	4eyy	-ska	8a\L	-ska	8cc\L	-ska	.	.	.	.	.
8c#X\J	.	.	.	.	8c#X\J	.	.	.	.	8g\J	.	8b\J	.	.	.	.	.	.
=4	=4	=4	=4	=4	=4	=4	=4	=4	=4	=4	=4	=4	=4	=4	=4	=4	=4	=4
4d\	.	.	2ryy	2ryy	8d\	Li-	8D/	8dyy	Li-	8g\	Li-	8b\	Li-	2ryy	2ryy	2ryy	2r	2r
.	.	.	.	.	8d\	-li-	8D/	8dyy	-li-	8f#\	-li-	8a\	-li-	.	.	.	.	.
4D/	.	.	.	.	4D\	-a	4D/	4dyy	-a	4f#\	-a	4a\	-a,	.	.	.	.	.
=5	=5	=5	=5	=5	=5	=5	=5	=5	=5	=5	=5	=5	=5	=5	=5	=5	=5	=5
4G\	.	.	2ryy	2ryy	4G\	Pa-	4D/	4dyy	Pa-	4B/	Pa-	4g\	Pa-	2ryy	2ryy	2ryy	2r	2r
4r	.	.	.	.	8D\L	-nu	4D/	4dyy	-nu	8f#\L	-nu	8a\L	-nu	.	.	.	.	.
.	.	.	.	.	8G\J	.	.	.	.	8g\J	.	8b\J	.	.	.	.	.	.
=6	=6	=6	=6	=6	=6	=6	=6	=6	=6	=6	=6	=6	=6	=6	=6	=6	=6	=6
4D\	.	.	2ryy	2ryy	4F#\	Bo-	4D/	4dyy	Bo-	4a\	Bo-	4cc\	Bo-	2ryy	2ryy	2ryy	2r	2r
4r	.	.	.	.	4D\	-gu	4D/	4dyy	-gu	4f#\	-gu	4a\	-gu	.	.	.	.	.
=7	=7	=7	=7	=7	=7	=7	=7	=7	=7	=7	=7	=7	=7	=7	=7	=7	=7	=7
!LO:TX:t=P:problem:mixed beam	!	!	!	!	!	!	!	!	!	!	!	!	!	!	!	!	!	!
8G\L	.	.	2ryy	2ryy	4G\	mi-	2D/	2dyy	mi-	4g\	mi-	4b\	mi-	2ryy	2ryy	2ryy	2r	2r
8GG/	.	.	.	.	.	.	.	.	.	.	.	.	.	.	.	.	.	.
8D\	.	.	.	.	4D\	.	.	.	.	4d\	.	4a\	.	.	.	.	.	.
8D\J	.	.	.	.	.	.	.	.	.	.	.	.	.	.	.	.	.	.
!	!	!	!	!	!	!	!	!	!	!	!LO:LB:g=original	!	!	!	!	!	!	!
=8	=8	=8	=8	=8	=8	=8	=8	=8	=8	=8	=8	=8	=8	=8	=8	=8	=8	=8
8G\L	.	.	2ryy	2ryy	4GG/	-ła	4D/	4dyy	-ła	4B/	-ła	4g\	-ła,	2ryy	2ryy	2ryy	4r	4r
16D\L	.	.	.	.	.	.	.	.	.	.	.	.	.	.	.	.	.	.
16BB\JJ	.	.	.	.	.	.	.	.	.	.	.	.	.	.	.	.	.	.
!LO:TX:t=P:problem:mixed beam	!	!	!	!	!	!	!LO:TX:b:t=V.S.	!	!	!	!	!	!	!	!	!	!	!
8GG/L	.	.	.	.	4r	.	4r	4ryy	.	4r	.	4r	.	.	.	.	8r	8r
!	!	!	!	!	!LO:LB:g=original	!	!	!	!	!	!	!	!	!	!	!	!LO:TX:a:t=Solo	!LO:TX:a:t=Solo.
8G\J	.	.	.	.	.	.	.	.	.	.	.	.	.	.	.	.	8gg\	8bb\
*	*	*	*	*	*	*	*v	*v	*	*	*	*	*	*	*	*	*	*
!	!	!	!	!	!	!	!LO:PB:g=original	!	!LO:LB:g=original	!	!	!	!	!	!	!	!
=9	=9	=9	=9	=9	=9	=9	=9	=9	=9	=9	=9	=9	=9	=9	=9	=9	=9
8F#\L	.	.	2ryy	2ryy	4D\	Pa-	4d\	Pa-	4f#\	Pa-	4a\	Pa-	2ryy	2ryy	2ryy	4ff#\	4aa\
8D\	.	.	.	.	.	.	.	.	.	.	.	.	.	.	.	.	.
8G\	.	.	.	.	4D\	-nu	4d\	-nu	4g\	-nu	4b\	-nu	.	.	.	4gg\	4bb\
8D\J	.	.	.	.	.	.	.	.	.	.	.	.	.	.	.	.	.
=10	=10	=10	=10	=10	=10	=10	=10	=10	=10	=10	=10	=10	=10	=10	=10	=10	=10
8F#\L	.	.	2ryy	2ryy	4.D\	Bo-	4d\	Bo-	4.f#\	Bo-	4.a\	Bo-	2ryy	2ryy	2ryy	4ff#\	4aa\
8D\	.	.	.	.	.	.	.	.	.	.	.	.	.	.	.	.	.
8F#\	.	.	.	.	.	.	4d\	-gu	.	.	.	.	.	.	.	8r	8r
8G\J	.	.	.	.	8G\	-gu	.	.	8g\	-gu	8b\	-gu	.	.	.	8gg\	8bb\
=11	=11	=11	=11	=11	=11	=11	=11	=11	=11	=11	=11	=11	=11	=11	=11	=11	=11
*	*	*	*	*	*	*	*2\right	*	*	*	*	*	*	*	*	*	*
4A\	8:7 6:5	.	2ryy	2ryy	4A\	mi-	2A\	mi-	8f#\L	mi-	8a/L	mi-	2ryy	2ryy	2ryy	8ff#\L	8aa\L
.	.	.	.	.	.	.	.	.	8e\J	.	8g/J	.	.	.	.	8ee\	8gg\
4AA/	6:5 4:#	.	.	.	4AA/	.	.	.	8d\L	.	8f#/L	-[[hi]]-	.	.	.	8dd\	8ff#\
.	.	.	.	.	.	.	.	.	8c#X\J	.	8e/J	.	.	.	.	8cc#X\J	8ee\J
!LO:LB:g=original	!	!	!	!	!	!	!	!	!	!	!	!	!	!	!	!	!
=12	=12	=12	=12	=12	=12	=12	=12	=12	=12	=12	=12	=12	=12	=12	=12	=12	=12
!LO:TX:t=P:problem:mixed beam	!	!	!	!	!	!	!	!	!	!	!	!	!	!	!	!LO:TX:t=P:problem:mixed beam	!
8d\L	.	.	2ryy	2ryy	4D\	-ła	4A\	-ła	4d\	-ła	4f#/	-ła	2ryy	2ryy	2ryy	8dd\L	4dd\
8D/J	.	.	.	.	.	.	.	.	.	.	.	.	.	.	.	8f#/J	.
!LO:N:vis=8	!	!	!	!	!	!	!	!	!	!	!	!	!	!	!	!	!
4r	.	.	.	.	4r	.	4r	.	4r	.	4r	.	.	.	.	8r	8r
.	.	.	.	.	.	.	.	.	.	.	.	.	.	.	.	8gg\	8bb\
=13	=13	=13	=13	=13	=13	=13	=13	=13	=13	=13	=13	=13	=13	=13	=13	=13	=13
8F#\L	.	.	2ryy	2ryy	4D\	Pa-	4d\	Pa-	4.f#\	Pa-	4a\	Pa-	2ryy	2ryy	2ryy	4ff#\	4aa\
8D\	.	.	.	.	.	.	.	.	.	.	.	.	.	.	.	.	.
8G\	.	.	.	.	4D\	-nu	4d\	-nu	.	.	4b\	-nu	.	.	.	4gg\	4bb\
8D\J	.	.	.	.	.	.	.	.	8g\	-nu	.	.	.	.	.	.	.
=14	=14	=14	=14	=14	=14	=14	=14	=14	=14	=14	=14	=14	=14	=14	=14	=14	=14
8F#\L	.	.	2ryy	2ryy	4.D\	Bo-	4d\	Bo-	4.f#\	Bo-	4.a\	Bo-	2ryy	2ryy	2ryy	4ff#\	4aa\
8D\	.	.	.	.	.	.	.	.	.	.	.	.	.	.	.	.	.
8G\	.	.	.	.	.	.	4d\	-gu	.	.	.	.	.	.	.	8r	8r
8D\J	.	.	.	.	8G\	-gu	.	.	8g\	-gu	8b\	-gu	.	.	.	8gg\	8bb\
=15	=15	=15	=15	=15	=15	=15	=15	=15	=15	=15	=15	=15	=15	=15	=15	=15	=15
4A\	6 4	.	2ryy	2ryy	4A\	mi-	2A\	mi-	4f#\	mi-	8a\L	mi-	2ryy	2ryy	2ryy	4ff#\	8aa\L
.	.	.	.	.	.	.	.	.	.	.	8dd\J	.	.	.	.	.	8ddd\J
4AA/	5 #	.	.	.	4AA/	.	.	.	4e\	.	8dd\L	.	.	.	.	4ee\	8ddd\L
.	.	.	.	.	.	.	.	.	.	.	8cc#X\J	.	.	.	.	.	8ccc#X\J
=16	=16	=16	=16	=16	=16	=16	=16	=16	=16	=16	=16	=16	=16	=16	=16	=16	=16
!LO:TX:t=P:problem:mixed beam	!	!	!	!	!	!	!	!	!	!	!	!	!	!	!	!	!
8D\L	.	.	2ryy	2ryy	4D\	-ła	4A\	-ła	4f#\	-ła	4dd\	-ła	2ryy	2ryy	2ryy	4ff#\	4ddd\
8AA/	.	.	.	.	.	.	.	.	.	.	.	.	.	.	.	.	.
!	!	!	!	!	!LO:TX:b:t=V.S.	!	!	!	!	!	!	!	!	!	!	!	!
8DD/J	.	.	.	.	4r	.	4r	.	4r	.	4r	.	.	.	.	4r	4r
8r	.	.	.	.	.	.	.	.	.	.	.	.	.	.	.	.	.
!	!	!	!	!	!LO:PB:g=original	!	!	!	!	!	!	!	!	!	!	!	!LO:LB:g=original
=17	=17	=17	=17	=17	=17	=17	=17	=17	=17	=17	=17	=17	=17	=17	=17	=17	=17
*	*	*	*	*	*	*	*^	*	*	*	*	*	*	*	*	*	*
!	!	!	!	!	!	!	!LO:TX:a:t=in 8ctava	!	!	!	!	!	!	!	!	!	!	!LO:TX:a:t=8
4G\	.	.	2ryy	2ryy	4G\	Ma-	4D/	4d/	Ma-	8B/	Ma-	8g\	Ma-	2ryy	2ryy	2ryy	2r	2r
.	.	.	.	.	.	.	.	.	.	8B/	-tko	8g\	-tko	.	.	.	.	.
4r	.	.	.	.	8D\	-tko	8D/	8d/	-tko	8f#\L	Li-	8a\	Li-	.	.	.	.	.
.	.	.	.	.	8G\	Li-	8D/	8d/	Li-	8g\J	.	8b\	-to-	.	.	.	.	.
!	!	!	!	!	!	!	!LO:LB:g=original	!	!	!	!	!	!	!	!	!	!	!
=18	=18	=18	=18	=18	=18	=18	=18	=18	=18	=18	=18	=18	=18	=18	=18	=18	=18	=18
4D\	.	.	2ryy	2ryy	8F#\	-to-	8D/	8dyy	-tos-	8a\	-to-	4cc\	-ści-	2ryy	2ryy	2ryy	2r	2r
.	.	.	.	.	8F#\	-ści-	8D/	8dyy	-ci-	8a\	-sci-	.	.	.	.	.	.	.
!	!	!	!	!	!	!	!	!	!LO:TX:b:t=V.S.	!	!LO:TX:b:t=V&colon;S&colon;	!	!	!	!	!	!	!
4r	.	.	.	.	4D\	-wa	4D/	4dyy	-wa	4f#\	-va,	4a\	-va	.	.	.	.	.
!	!	!	!	!	!	!	!	!	!LO:PB:g=original	!	!LO:PB:g=original	!	!	!	!	!	!	!
=19	=19	=19	=19	=19	=19	=19	=19	=19	=19	=19	=19	=19	=19	=19	=19	=19	=19	=19
8G\	.	.	2ryy	2ryy	8G\	tyś	8D/	8dyy	tys	8g\	Tys	8b\	Tyś	2ryy	2ryy	2ryy	2r	2r
8r	.	.	.	.	8G\	jest	8D/	8dyy	jest	8b\	jest	8dd\	jest	.	.	.	.	.
8c\L	.	.	.	.	8c\	na-	8G/	8gyy	na-	8a\	na-	8cc\	na-	.	.	.	.	.
8c#X\J	.	.	.	.	8c#X\	-sza	8E/	8eyy	-sza	8g\	-sza	8b\	-sza	.	.	.	.	.
=20	=20	=20	=20	=20	=20	=20	=20	=20	=20	=20	=20	=20	=20	=20	=20	=20	=20	=20
4d\	.	.	2ryy	2ryy	8d\	U-	8D/	8dyy	u-	8g\	U-	8b\	U-	2ryy	2ryy	2ryy	2r	2r
.	.	.	.	.	8d\	-cie-	8D/	8dyy	-ciez-	8f#\	-cie-	8a\	-ciecz-	.	.	.	.	.
4D/	.	.	.	.	4D\	-zka	4D/	4dyy	-ka	4f#\	-zka,	4a\	-ka	.	.	.	.	.
=21	=21	=21	=21	=21	=21	=21	=21	=21	=21	=21	=21	=21	=21	=21	=21	=21	=21	=21
4G\	.	.	2ryy	2ryy	4G\	Nay-	2D/	2dyy	Nay-	4B/	Nay-	4g\	Nay-	2ryy	2ryy	2ryy	2r	2r
4r	.	.	.	.	8D\L	.	.	.	.	8f#\L	.	8a\	.	.	.	.	.	.
.	.	.	.	.	8G\J	.	.	.	.	8g\J	.	8b\	.	.	.	.	.	.
=22	=22	=22	=22	=22	=22	=22	=22	=22	=22	=22	=22	=22	=22	=22	=22	=22	=22	=22
4D\	.	.	2ryy	2ryy	4F#\	-swię-	4D/	4dyy	-swię-	4a\	-swię-	4cc\	-swięt-	2ryy	2ryy	2ryy	2r	2r
4r	.	.	.	.	4D\	-tsza	8D/	8dyy	-tza	8f#\	-tsza	4a\	-sza	.	.	.	.	.
.	.	.	.	.	.	.	8D/	8dyy	Ma-	8f#\	Ma-	.	.	.	.	.	.	.
!	!	!	!	!	!LO:LB:g=original	!	!	!	!	!	!	!	!	!	!	!	!	!
=23	=23	=23	=23	=23	=23	=23	=23	=23	=23	=23	=23	=23	=23	=23	=23	=23	=23	=23
4G\	.	.	2ryy	2ryy	4G\	Ma-	2D/	2dyy	-ri-	4g\	-ri-	4b\	Ma-	2ryy	2ryy	2ryy	2r	2r
4D\	.	.	.	.	4D\	-ri-	.	.	.	4d\	.	4a\	-ri-	.	.	.	.	.
=24	=24	=24	=24	=24	=24	=24	=24	=24	=24	=24	=24	=24	=24	=24	=24	=24	=24	=24
!	!	!	!	!	!	!	!	!	!	!	!	!	!	!	!	!	!	!LO:TX:b:t=Volti S&colon;
8G\L	.	.	2ryy	2ryy	4GG/	-a	4D/	4dyy	-a.	4B/	-a	4g\	-a.	2ryy	2ryy	2ryy	2r	2r
8D\J	.	.	.	.	.	.	.	.	.	.	.	.	.	.	.	.	.	.
4GG/	.	.	.	.	4r	.	4r	4ryy	.	4r	.	4r	.	.	.	.	.	.
*	*	*	*	*	*	*	*v	*v	*	*	*	*	*	*	*	*	*	*
==	==	==	==	==	==	==	==	==	==	==	==	==	==	==	==	==	==
*-	*-	*-	*-	*-	*-	*-	*-	*-	*-	*-	*-	*-	*-	*-	*-	*-	*-
!!!system-decoration: [(s1,s2)][(s3,s4)]s5[(s6,s7,s8,s9)][(s10,s11)]s12
!!!AIN: 1 alto 1 bass 2 empty 2 oboe 1 organ 1 tenor 1 timpa 2 violn 1 vox
!!!ENC: Krzysztof Stępień
!!!END: 2020-09-10
!!!ENC: Urszula Świątek
!!!END: 2022-01-26
